X:1
T:Lead Me
T:Ira Allan Sankey
T:Lead Me
T:Public Domain
T:Public Domain
C:Ira Allan Sankey
Z:Public Domain
%%score ( 1 2 ) ( 3 4 )
L:1/8
M:4/4
K:G
V:1 treble 
V:2 treble 
V:3 bass 
V:4 bass 
V:1
 DD | [DG]2 [DG]2 [GB]2 [GB]2 | [GB][FA][EG][FA] [GB]2 [GB][Fc] | [Gd]2 [Dd]2 [Fc]2 [GB]2 | %4
w: 1.~Guide my|Fa- ther, Lead me|lest I stray; Let Thy hand un-|err- ing Point out|
w: 2.~As I|on- ward To the|home a- bove; All my path- way|shel- ter With Thy|
w: 3.~Guide my|Fa- ther, Night draws|on a- pace; Work- ing hours of|bright- ness To the|
 [GB][FA][FA][EG] [FA]2 [Fd]>[Ac] | [GB]2 [GB]2 [GA]2 (D^D) | [EG][EG][DF][CE] [B,D]2 [B,D][B,D] | %7
w: all my way. When the road is|drear- y, And my *|is sad, When my heart is wear-|
w: wings of love. ’Neath them my pa-|vil- ion, Naught can *|a- larm. Shin- ing sun, or sha-|
w: dark give place. Guide my foot- steps,|Fa- ther, What have *|to fear? Thou my joy- ful por-|
 [CE]2 [DF]2 [DG][DB][=Fd][Ec] | [DB]2 [FA]2 G2 ||"^Refrain" [DB][Dc] | (G2 G2 G2) [Ge]2 | %11
w: y, Do Thou make me glad.|Be my Rock|Fort- ress,|Be * * my|
w: dow, Nei- ther work- eth harm.||||
w: tion, Thou my Guide sin- cere!||||
 [Gd]2 [GB]4 G[GA] | (G2 G2 G2) [Gc]2 | [GB]6 DD | [DG]2 [DG]2 [DA]2 [FA]2 | [GB]2 [Gd]4 [DG][EA] | %16
w: and Stay; Like a|der * * Shep-|lead me, Lead|ly all the way.||
w: |||||
w: |||||
 [DB]2 [Ec]2 [CA]3 [B,G] | [B,G]6 |] %18
w: ||
w: ||
w: ||
V:2
 DD | x8 | x8 | x8 | x8 | x6 G2 | x8 | x8 | x4 G2 || x2 | d6 x2 | x6 G x | B6 x2 | x6 DD | x8 | %15
w: foot- steps,|||||soul|||and||Strength|ten-|herd|me safe-||
w: jour- ney|||||me||||||||||
w: foot- steps,|||||I||||||||||
 x8 | x8 | x6 |] %18
w: |||
w: |||
w: |||
V:3
 [G,B,][G,B,] | [G,B,]2 [G,B,]2 [G,D]2 [G,D]2 | [D,D][D,D][D,D][D,D] [G,D]2 [G,D][A,D] | %3
w: ~ ~|~ ~ ~ ~|~ ~ ~ ~ ~ ~ ~|
 [B,D]2 [B,D]2 [A,D]2 [G,D]2 | [D,D][D,D][D,D][D,D] [D,D]2 [D,D]>[F,D] | %5
w: ~ ~ ~ ~|~ ~ ~ ~ ~ ~ ~|
 [G,D]2 [G,D]2 [G,C]2 [G,B,]2 | [C,C][C,G,][C,G,][E,G,] G,2 G,G, | %7
w: ~ ~ ~ ~|~ ~ ~ ~ ~ ~ ~|
 [C,G,]2 [A,,C]2 [G,,B,][G,,G,][B,,G,][C,G,] | [D,G,]2 [D,C]2 [G,,B,]2 || G,[G,A,] | %10
w: ~ ~ ~ ~ ~ ~|Be my Rock,|my Rock|
 [G,B,]2 [G,B,]2 [G,B,]2 [G,C]2 | [G,B,]2 [G,D]4 [G,B,][G,C] | [G,D]2 [G,D]2 [G,D]2 [G,E]2 | %13
w: Fort- ress, Be my|Strength, my Strength and|Stay; * * *|
 [G,D]6 [G,,B,][G,,B,] | [G,,B,]2 [B,,G,]2 [D,F,]2 [D,D]2 | [G,D]2 [G,B,]4 [B,,G,][C,G,] | %16
w: |||
 [D,G,]2 [D,G,]2 [D,F,]3 [G,,G,] | [G,,G,]6 |] %18
w: ||
V:4
 x2 | x8 | x8 | x8 | x8 | x8 | x4 G,2 G,G, | x8 | x6 || G, x | x8 | x8 | x8 | x8 | x8 | x8 | x8 | %17
w: ||||||~ ~ ~|||and||||||||
 x6 |] %18
w: |

